lib/assets/icons/svg/outlined-content-education.svg

<svg xmlns="http://www.w3.org/2000/svg" viewBox="0 0 24 24"><path d="M11.998 13.58a1.258 1.258 0 0 1-.67-.19l-3.96-1.902v4.332a.48.48 0 0 0 .29.44l4.15 2a.322.322 0 0 0 .35 0l4.25-2a.667.667 0 0 0 .23-.48v-4.285l-4.01 1.925a1.18 1.18 0 0 1-.63.16zm-8.73-4.2a.62.62 0 0 1 .17-.67l.13-.1 7.8-3.79c.4-.241.9-.241 1.3 0l7.66 3.75h.39l.05.58a.57.57 0 0 1-.39.55l-2.74 1.315v4.805a1.66 1.66 0 0 1-.75 1.32l-4.26 2a1.172 1.172 0 0 1-.63.22 1.403 1.403 0 0 1-.68-.19l-4.07-1.93a1.45 1.45 0 0 1-.88-1.35v-4.883l-2.08-.999v5.432a.5.5 0 0 1-1 0V9.415zm1.51-.25l7 3.38a.322.322 0 0 0 .35 0l7.07-3.4-7-3.44a.322.322 0 0 0-.35 0z"/></svg>

<svg viewBox="0 0 24 24" xmlns="http://www.w3.org/2000/svg">
  <path  d="M 11.998 13.58 C 11.761 13.581 11.529 13.515 11.328 13.39 L 7.368 11.488 L 7.368 15.82 C 7.368 16.011 7.482 16.184 7.658 16.26 L 11.808 18.26 C 11.914 18.329 12.052 18.329 12.158 18.26 L 16.408 16.26 C 16.548 16.139 16.631 15.965 16.638 15.78 L 16.638 11.495 L 12.628 13.42 C 12.437 13.531 12.219 13.587 11.998 13.58 Z M 3.268 9.38 C 3.183 9.143 3.251 8.878 3.438 8.71 L 3.568 8.61 L 11.368 4.82 C 11.768 4.579 12.268 4.579 12.668 4.82 L 20.328 8.57 L 20.718 8.57 L 20.768 9.15 C 20.772 9.399 20.614 9.621 20.378 9.7 L 17.638 11.015 L 17.638 15.82 C 17.616 16.355 17.336 16.847 16.888 17.14 L 12.628 19.14 C 12.444 19.273 12.225 19.349 11.998 19.36 C 11.759 19.356 11.525 19.29 11.318 19.17 L 7.248 17.24 C 6.709 17.009 6.361 16.477 6.368 15.89 L 6.368 11.007 L 4.288 10.008 L 4.288 15.44 C 4.288 15.716 4.064 15.94 3.788 15.94 C 3.512 15.94 3.288 15.716 3.288 15.44 L 3.288 9.415 Z M 4.778 9.13 L 11.778 12.51 C 11.884 12.579 12.022 12.579 12.128 12.51 L 19.198 9.11 L 12.198 5.67 C 12.092 5.601 11.954 5.601 11.848 5.67 Z"/>
</svg>
